X: 35551
T: Rustleton & Rigby
R: reel
M: 4/4
K: Dmajor
DE|:FAdB AFED|A,B,DF EDB,D|A,B,DF EDEF|ABAF EDB,D|
FAdB AFED|A,B,DF EDB,D|A,B,DF EDEF|ABAF D2 DE:|
|:D B2 A B3 B-|BAdB AFED|B, E2 D E3 F|EDB,D A,B,DE|
[1 D B2 A B3 B-|BAdB AFED|A,B,DF EDEF|ABAF D2 DE:|
[2 DAde d3 e|fedB AFED|A,B,DF EDEF|ABAF D2 DE||

